X:1
T:Middlesex, 88.88.88
T:Middlesex, 88.88.88
T:Anonymous, before 1875
T:Public Domain Courtesy of the Cyber Hymnal™
C:Anonymous, before 1875
Z:Public Domain
Z:Courtesy of the Cyber Hymnal™
%%score ( 1 2 ) 3
L:1/8
Q:1/4=115
M:3/4
K:G
V:1 treble 
V:2 treble 
V:3 bass 
V:1
 [GB]2 [GB]2 [FA]2 | G4 (GB) | c4 [GB]2 | [FA]4 [FA]2 | d4 [Ac]2 | [GB]4 (cA) | [DG]4 [DF]2 | %7
 [DG]4 z2 | [GB]2 [GB]2 [FA]2 | (G2 A2) [GB]2 | c4 [GB]2 | [FA]4 [FA]2 | d4 [Ac]2 | [GB]4 (cA) | %14
 [DG]4 [DF]2 | [DG]4 [GB]2 | [Gd]4 [Ge]2 | (d2 c2) [Ad]2 | (c2 B2) [Gc]2 | ([GB]2 [FA]2) [Fd]2 | %20
 [Gd]4 [Gc]2 | [FB]4 [GB]2 | (BA) (G2 F2) | [DG]6 |] %24
V:2
 x6 | G4 E2 | (E2 F2) x2 | x6 | (F2 G2) x2 | x4 E2 | x6 | x6 | x6 | G4 x2 | (E2 F2) x2 | x6 | %12
 (F2 G2) x2 | x4 E2 | x6 | x6 | x6 | G4 x2 | G4 x2 | x6 | x6 | x6 | E2 D4 | x6 |] %24
V:3
 [G,,D]2 [B,,D]2 [D,C]2 | [E,B,]4 ([C,E][B,,D]) | [A,,C]4 [G,,D]2 | [D,D]4 [D,D]2 | %4
 [B,,D]4 [F,D]2 | [G,D]4 [C,C]2 | [D,B,]4 [D,A,]2 | [G,,B,]4 z2 | [G,,D]2 [B,,D]2 [D,C]2 | %9
 [E,B,]2 [C,E]2 [B,,D]2 | [A,,C]4 [G,,D]2 | [D,D]4 [D,D]2 | [B,,D]4 [F,D]2 | [G,D]4 [C,C]2 | %14
 [D,B,]4 [D,A,]2 | [G,,B,]4 [G,B,]2 | [G,B,]4 [G,B,]2 | [E,E]4 [F,D]2 | [G,D]4 [C,E]2 | %19
 [D,D]4 [B,,D]2 | [E,B,]4 [A,,E]2 | [D,D]4 [G,,D]2 | [C,C]2 [D,B,]2 [D,A,]2 | [G,,B,]6 |] %24

